X: 63
T:Wake Up Susan
M:4/4
L:1/8
C:Old-Time
R:Reel
K:A
(efg)|a2 A2 ABAF|EFAB cABc|B2 G2 B2 G2|BABc defg|!
a2 A2 ABAF|EFAB cABc|B2 G2 B2 af|ecBc A2:|!
E2 C2 E2 C2|AGAB cBAc|B2 G2 B2 G2|BABc dcBA|!
E2 C2 E2 C2|AGAB cBAc|B2 G2 B2 af|ecBc A2:|!
